X: 28785
T: My Love Is In The House
R: reel
M: 4/4
K: Dmajor
F/E/|:DEFG A2 AB|=cAdB cAGE|DEFG A2 GF|EFGE FD D2:|
|:defd efge|agfg ecAG|FGAB =cAGF|EFGE FD D2:|

